X: 5
T: The Primrose Lasses
R: reel
M: 4/4
L: 1/8
K: Gmaj
~b3a ~g3e|dB~B2 dega|~b3a ~g3e|dBGA BA~A2:||:Bd~d2 edgd|edgd edgd|Bd~d2 edge|1 dBGB A2GA:|2 dBGB A2G2||


Tune 789	Setting 13927

